public/assets/svgs/node.svg

<svg height="271" viewBox="0 0 443 271" width="443" xmlns="http://www.w3.org/2000/svg"><g fill="none" fill-rule="evenodd"><g fill="#8e9ba0"><path d="m231.293 239.182c-17.481 0-21.144-8.023-21.144-14.755 0-.641.515-1.151 1.153-1.151h5.166c.576 0 1.058.416 1.147.979.78 5.259 3.104 7.912 13.677 7.912 8.416 0 11.999-1.903 11.999-6.369 0-2.573-1.016-4.485-14.095-5.767-10.931-1.081-17.691-3.496-17.691-12.239 0-8.062 6.793-12.868 18.187-12.868 12.798 0 19.131 4.441 19.933 13.973.03.328-.086.645-.305.889-.22.229-.524.369-.847.369h-5.186c-.537 0-1.012-.383-1.121-.902-1.243-5.533-4.27-7.302-12.476-7.302-9.189 0-10.257 3.2-10.257 5.601 0 2.906 1.26 3.751 13.667 5.393 12.276 1.623 18.108 3.922 18.108 12.551.002 8.699-7.256 13.686-19.915 13.686zm-12.34 31.762c-1.46 0-2.912-.382-4.189-1.121l-13.338-7.893c-1.992-1.113-1.02-1.509-.363-1.737 2.658-.922 3.195-1.136 6.031-2.743.295-.167.688-.104.992.076l10.247 6.083c.371.206.896.206 1.237 0l39.95-23.059c.372-.212.609-.641.609-1.081v-46.104c0-.451-.237-.872-.62-1.101l-39.933-23.039c-.369-.216-.858-.216-1.231 0l-39.922 23.045c-.389.223-.635.658-.635 1.095v46.104c0 .44.246.858.63 1.067l10.944 6.323c5.938 2.969 9.574-.528 9.574-4.041v-45.518c0-.646.517-1.151 1.16-1.151h5.065c.634 0 1.158.508 1.158 1.151v45.52c0 7.925-4.315 12.47-11.829 12.47-2.309 0-4.127 0-9.202-2.501l-10.476-6.03c-2.588-1.496-4.19-4.293-4.19-7.288v-46.104c0-2.995 1.603-5.792 4.19-7.281l39.952-23.086c2.527-1.43 5.888-1.43 8.396 0l39.947 23.085c2.587 1.496 4.194 4.286 4.194 7.281v46.104c0 2.995-1.607 5.781-4.194 7.288l-39.947 23.064c-1.277.74-2.726 1.122-4.207 1.122z"/><path d="m288.898 190.831c0 4.235-3.465 7.698-7.698 7.698-4.197 0-7.7-3.422-7.7-7.698 0-4.358 3.586-7.701 7.7-7.701 4.155 0 7.698 3.343 7.698 7.701zm-14.154-.02c0 3.586 2.893 6.479 6.436 6.479 3.586 0 6.479-2.954 6.479-6.479 0-3.586-2.934-6.438-6.479-6.438-3.503 0-6.436 2.811-6.436 6.438z"/><path d="m278.307 186.511h2.977c1.019 0 3.016 0 3.016 2.283 0 1.589-1.019 1.914-1.632 2.118 1.184.081 1.264.855 1.426 1.955.083.691.206 1.875.448 2.281h-1.831c-.043-.406-.329-2.607-.329-2.729-.119-.489-.285-.731-.896-.731h-1.507v3.461h-1.672zm1.631 3.789h1.345c1.098 0 1.304-.772 1.304-1.221 0-1.183-.816-1.183-1.264-1.183h-1.385z"/><path d="m394.842 105.215c.305-.176.68-.176.982 0l8.13 4.689c.304.176.491.5.491.852v9.388c0 .353-.188.675-.491.851l-8.13 4.691c-.305.176-.678.176-.982 0l-8.124-4.691c-.304-.176-.489-.498-.489-.851v-9.388c0-.352.187-.676.489-.852zm45.289 2.29c1.576-.915 2.546-2.601 2.546-4.424v-11.854c0-1.822-.97-3.51-2.548-4.424l-42.099-24.443c-1.584-.922-3.539-.922-5.127-.008l-42.356 24.453c-1.583.914-2.558 2.603-2.558 4.43v48.903c0 1.84.985 3.537 2.584 4.446l42.093 23.984c1.552.887 3.455.896 5.017.027l25.46-14.149c.81-.45 1.312-1.298 1.316-2.22.006-.924-.485-1.776-1.284-2.235l-42.625-24.466c-.796-.455-1.286-1.303-1.286-2.219v-15.326c0-.914.488-1.76 1.281-2.215l13.266-7.648c.789-.456 1.766-.456 2.556 0l13.271 7.648c.793.455 1.28 1.301 1.28 2.215v12.059c0 .916.49 1.762 1.283 2.218.793.458 1.77.454 2.561-.005z"/><path d="m394.842 105.215c.305-.176.68-.176.982 0l8.13 4.689c.304.176.491.5.491.852v9.388c0 .353-.188.675-.491.851l-8.13 4.691c-.305.176-.678.176-.982 0l-8.124-4.691c-.304-.176-.489-.498-.489-.851v-9.388c0-.352.187-.676.489-.852zm45.289 2.29c1.576-.915 2.546-2.601 2.546-4.424v-11.854c0-1.822-.97-3.51-2.548-4.424l-42.099-24.443c-1.584-.922-3.539-.922-5.127-.008l-42.356 24.453c-1.583.914-2.558 2.603-2.558 4.43v48.903c0 1.84.985 3.537 2.584 4.446l42.093 23.984c1.552.887 3.455.896 5.017.027l25.46-14.149c.81-.45 1.312-1.298 1.316-2.22.006-.924-.485-1.776-1.284-2.235l-42.625-24.466c-.796-.455-1.286-1.303-1.286-2.219v-15.326c0-.914.488-1.76 1.281-2.215l13.266-7.648c.789-.456 1.766-.456 2.556 0l13.271 7.648c.793.455 1.28 1.301 1.28 2.215v12.059c0 .916.49 1.762 1.283 2.218.793.458 1.77.454 2.561-.005z"/><path d="m299.04.34c-.793-.439-1.76-.431-2.543.029-.78.459-1.262 1.299-1.262 2.206v65c0 .639-.343 1.231-.895 1.551-.555.32-1.237.32-1.791 0l-10.608-6.112c-1.582-.912-3.529-.91-5.112.002l-42.371 24.453c-1.584.914-2.559 2.604-2.559 4.43v48.917c0 1.828.975 3.516 2.557 4.432l42.37 24.471c1.584.914 3.534.914 5.118 0l42.377-24.471c1.582-.916 2.558-2.604 2.558-4.432v-121.937c0-1.854-1.004-3.564-2.624-4.468zm-3.931 124.403c0 .456-.244.879-.641 1.106l-14.549 8.386c-.395.227-.882.227-1.276 0l-14.548-8.386c-.396-.228-.641-.65-.641-1.106v-16.799c0-.456.243-.88.64-1.108l14.547-8.402c.396-.229.885-.229 1.28 0l14.548 8.402c.396.229.64.652.64 1.108z"/></g><path d="m160.756 62.869-42.02 24.254c-1.572.906-2.539 2.582-2.539 4.395v48.549c0 1.813.967 3.488 2.537 4.396l42.02 24.273c1.571.906 3.508.906 5.079 0l42.028-24.273c1.572-.908 2.539-2.583 2.539-4.396v-48.547c0-1.814-.967-3.49-2.539-4.396l-42.03-24.254c-.785-.454-1.661-.68-2.538-.68-.876-.001-1.753.225-2.537.679" fill="#555d60"/><path d="m95.242 90.566c0-1.84-.969-3.532-2.558-4.444l-42.354-24.375c-.717-.422-1.52-.642-2.331-.674h-.438c-.81.032-1.611.252-2.339.674l-42.354 24.375c-1.58.912-2.562 2.604-2.562 4.444l.093 65.636c0 .913.475 1.762 1.277 2.21.786.471 1.758.471 2.541 0l25.172-14.414c1.592-.945 2.561-2.614 2.561-4.438v-30.665c0-1.828.969-3.52 2.555-4.428l10.718-6.174c.8-.461 1.672-.688 2.563-.688.873 0 1.769.227 2.545.688l10.715 6.174c1.586.908 2.559 2.6 2.559 4.428v30.665c0 1.824.981 3.504 2.563 4.438l25.165 14.414c.789.471 1.775.471 2.557 0 .78-.448 1.271-1.297 1.271-2.21z" fill="#8e9ba0"/></g></svg>

<?xml version="1.0" encoding="UTF-8" standalone="no"?>
<svg width="443px" height="271px" viewBox="0 0 443 271" version="1.1" xmlns="http://www.w3.org/2000/svg" xmlns:xlink="http://www.w3.org/1999/xlink">
    <defs>
        <path d="M394.842,105.215 C395.147,105.039 395.522,105.039 395.824,105.215 L403.954,109.904 C404.258,110.08 404.445,110.404 404.445,110.756 L404.445,120.144 C404.445,120.497 404.257,120.819 403.954,120.995 L395.824,125.686 C395.519,125.862 395.146,125.862 394.842,125.686 L386.718,120.995 C386.414,120.819 386.229,120.497 386.229,120.144 L386.229,110.756 C386.229,110.404 386.416,110.08 386.718,109.904 L394.842,105.215 L394.842,105.215 Z M440.131,107.505 C441.707,106.59 442.677,104.904 442.677,103.081 L442.677,91.227 C442.677,89.405 441.707,87.717 440.129,86.803 L398.03,62.36 C396.446,61.438 394.491,61.438 392.903,62.352 L350.547,86.805 C348.964,87.719 347.989,89.408 347.989,91.235 L347.989,140.138 C347.989,141.978 348.974,143.675 350.573,144.584 L392.666,168.568 C394.218,169.455 396.121,169.464 397.683,168.595 L423.143,154.446 C423.953,153.996 424.455,153.148 424.459,152.226 C424.465,151.302 423.974,150.45 423.175,149.991 L380.55,125.525 C379.754,125.07 379.264,124.222 379.264,123.306 L379.264,107.98 C379.264,107.066 379.752,106.22 380.545,105.765 L393.811,98.117 C394.6,97.661 395.577,97.661 396.367,98.117 L409.638,105.765 C410.431,106.22 410.918,107.066 410.918,107.98 L410.918,120.039 C410.918,120.955 411.408,121.801 412.201,122.257 C412.994,122.715 413.971,122.711 414.762,122.252 L440.131,107.505 L440.131,107.505 Z" id="path-1"></path>
        <path d="M394.842,105.215 C395.147,105.039 395.522,105.039 395.824,105.215 L403.954,109.904 C404.258,110.08 404.445,110.404 404.445,110.756 L404.445,120.144 C404.445,120.497 404.257,120.819 403.954,120.995 L395.824,125.686 C395.519,125.862 395.146,125.862 394.842,125.686 L386.718,120.995 C386.414,120.819 386.229,120.497 386.229,120.144 L386.229,110.756 C386.229,110.404 386.416,110.08 386.718,109.904 L394.842,105.215 L394.842,105.215 Z M440.131,107.505 C441.707,106.59 442.677,104.904 442.677,103.081 L442.677,91.227 C442.677,89.405 441.707,87.717 440.129,86.803 L398.03,62.36 C396.446,61.438 394.491,61.438 392.903,62.352 L350.547,86.805 C348.964,87.719 347.989,89.408 347.989,91.235 L347.989,140.138 C347.989,141.978 348.974,143.675 350.573,144.584 L392.666,168.568 C394.218,169.455 396.121,169.464 397.683,168.595 L423.143,154.446 C423.953,153.996 424.455,153.148 424.459,152.226 C424.465,151.302 423.974,150.45 423.175,149.991 L380.55,125.525 C379.754,125.07 379.264,124.222 379.264,123.306 L379.264,107.98 C379.264,107.066 379.752,106.22 380.545,105.765 L393.811,98.117 C394.6,97.661 395.577,97.661 396.367,98.117 L409.638,105.765 C410.431,106.22 410.918,107.066 410.918,107.98 L410.918,120.039 C410.918,120.955 411.408,121.801 412.201,122.257 C412.994,122.715 413.971,122.711 414.762,122.252 L440.131,107.505 L440.131,107.505 Z" id="path-3"></path>
        <path d="M299.04,0.34 C298.247,-0.099 297.28,-0.091 296.497,0.369 C295.717,0.828 295.235,1.668 295.235,2.575 L295.235,67.575 C295.235,68.214 294.892,68.806 294.34,69.126 C293.785,69.446 293.103,69.446 292.549,69.126 L281.941,63.014 C280.359,62.102 278.412,62.104 276.829,63.016 L234.458,87.469 C232.874,88.383 231.899,90.073 231.899,91.899 L231.899,140.816 C231.899,142.644 232.874,144.332 234.456,145.248 L276.826,169.719 C278.41,170.633 280.36,170.633 281.944,169.719 L324.321,145.248 C325.903,144.332 326.879,142.644 326.879,140.816 L326.879,18.879 C326.879,17.025 325.875,15.315 324.255,14.411 L299.04,0.34 L299.04,0.34 Z M295.109,124.743 C295.109,125.199 294.865,125.622 294.468,125.849 L279.919,134.235 C279.524,134.462 279.037,134.462 278.643,134.235 L264.095,125.849 C263.699,125.621 263.454,125.199 263.454,124.743 L263.454,107.944 C263.454,107.488 263.697,107.064 264.094,106.836 L278.641,98.434 C279.037,98.205 279.526,98.205 279.921,98.434 L294.469,106.836 C294.865,107.065 295.109,107.488 295.109,107.944 L295.109,124.743 L295.109,124.743 L295.109,124.743 Z" id="path-5"></path>
        <path d="M160.756,62.869 L118.736,87.123 C117.164,88.029 116.197,89.705 116.197,91.518 L116.197,140.067 C116.197,141.88 117.164,143.555 118.734,144.463 L160.754,168.736 C162.325,169.642 164.262,169.642 165.833,168.736 L207.861,144.463 C209.433,143.555 210.4,141.88 210.4,140.067 L210.4,91.52 C210.4,89.706 209.433,88.03 207.861,87.124 L165.831,62.87 C165.046,62.416 164.17,62.19 163.293,62.19 C162.417,62.189 161.54,62.415 160.756,62.869" id="path-7"></path>
        <path d="M95.242,90.566 C95.242,88.726 94.273,87.034 92.684,86.122 L50.33,61.747 C49.613,61.325 48.81,61.105 47.999,61.073 L47.561,61.073 C46.751,61.105 45.95,61.325 45.222,61.747 L2.868,86.122 C1.288,87.034 0.306,88.726 0.306,90.566 L0.399,156.202 C0.399,157.115 0.874,157.964 1.676,158.412 C2.462,158.883 3.434,158.883 4.217,158.412 L29.389,143.998 C30.981,143.053 31.95,141.384 31.95,139.56 L31.95,108.895 C31.95,107.067 32.919,105.375 34.505,104.467 L45.223,98.293 C46.023,97.832 46.895,97.605 47.786,97.605 C48.659,97.605 49.555,97.832 50.331,98.293 L61.046,104.467 C62.632,105.375 63.605,107.067 63.605,108.895 L63.605,139.56 C63.605,141.384 64.586,143.064 66.168,143.998 L91.333,158.412 C92.122,158.883 93.108,158.883 93.89,158.412 C94.67,157.964 95.161,157.115 95.161,156.202 L95.242,90.566 L95.242,90.566 Z" id="path-9"></path>
    </defs>
    <g id="Page-1" stroke="none" stroke-width="1" fill="none" fill-rule="evenodd">
        <path d="M231.293,239.182 C213.812,239.182 210.149,231.159 210.149,224.427 C210.149,223.786 210.664,223.276 211.302,223.276 L216.468,223.276 C217.044,223.276 217.526,223.692 217.615,224.255 C218.395,229.514 220.719,232.167 231.292,232.167 C239.708,232.167 243.291,230.264 243.291,225.798 C243.291,223.225 242.275,221.313 229.196,220.031 C218.265,218.95 211.505,216.535 211.505,207.792 C211.505,199.73 218.298,194.924 229.692,194.924 C242.49,194.924 248.823,199.365 249.625,208.897 C249.655,209.225 249.539,209.542 249.32,209.786 C249.1,210.015 248.796,210.155 248.473,210.155 L243.287,210.155 C242.75,210.155 242.275,209.772 242.166,209.253 C240.923,203.72 237.896,201.951 229.69,201.951 C220.501,201.951 219.433,205.151 219.433,207.552 C219.433,210.458 220.693,211.303 233.1,212.945 C245.376,214.568 251.208,216.867 251.208,225.496 C251.21,234.195 243.952,239.182 231.293,239.182 L231.293,239.182 L231.293,239.182 Z M218.953,270.944 C217.493,270.944 216.041,270.562 214.764,269.823 L201.426,261.93 C199.434,260.817 200.406,260.421 201.063,260.193 C203.721,259.271 204.258,259.057 207.094,257.45 C207.389,257.283 207.782,257.346 208.086,257.526 L218.333,263.609 C218.704,263.815 219.229,263.815 219.57,263.609 L259.52,240.55 C259.892,240.338 260.129,239.909 260.129,239.469 L260.129,193.365 C260.129,192.914 259.892,192.493 259.509,192.264 L219.576,169.225 C219.207,169.009 218.718,169.009 218.345,169.225 L178.423,192.27 C178.034,192.493 177.788,192.928 177.788,193.365 L177.788,239.469 C177.788,239.909 178.034,240.327 178.418,240.536 L189.362,246.859 C195.3,249.828 198.936,246.331 198.936,242.818 L198.936,197.3 C198.936,196.654 199.453,196.149 200.096,196.149 L205.161,196.149 C205.795,196.149 206.319,196.657 206.319,197.3 L206.319,242.82 C206.319,250.745 202.004,255.29 194.49,255.29 C192.181,255.29 190.363,255.29 185.288,252.789 L174.812,246.759 C172.224,245.263 170.622,242.466 170.622,239.471 L170.622,193.367 C170.622,190.372 172.225,187.575 174.812,186.086 L214.764,163 C217.291,161.57 220.652,161.57 223.16,163 L263.107,186.085 C265.694,187.581 267.301,190.371 267.301,193.366 L267.301,239.47 C267.301,242.465 265.694,245.251 263.107,246.758 L223.16,269.822 C221.883,270.562 220.434,270.944 218.953,270.944 L218.953,270.944 L218.953,270.944 Z" id="Combined-Shape" fill="#8E9BA0"></path>
        <path d="M288.898,190.831 C288.898,195.066 285.433,198.529 281.2,198.529 C277.003,198.529 273.5,195.107 273.5,190.831 C273.5,186.473 277.086,183.13 281.2,183.13 C285.355,183.13 288.898,186.473 288.898,190.831 L288.898,190.831 L288.898,190.831 Z M274.744,190.811 C274.744,194.397 277.637,197.29 281.18,197.29 C284.766,197.29 287.659,194.336 287.659,190.811 C287.659,187.225 284.725,184.373 281.18,184.373 C277.677,184.373 274.744,187.184 274.744,190.811 L274.744,190.811 L274.744,190.811 Z" id="Combined-Shape" fill="#8E9BA0"></path>
        <path d="M278.307,186.511 L281.284,186.511 C282.303,186.511 284.3,186.511 284.3,188.794 C284.3,190.383 283.281,190.708 282.668,190.912 C283.852,190.993 283.932,191.767 284.094,192.867 C284.177,193.558 284.3,194.742 284.542,195.148 L282.711,195.148 C282.668,194.742 282.382,192.541 282.382,192.419 C282.263,191.93 282.097,191.688 281.486,191.688 L279.979,191.688 L279.979,195.149 L278.307,195.149 L278.307,186.511 L278.307,186.511 L278.307,186.511 Z M279.938,190.3 L281.283,190.3 C282.381,190.3 282.587,189.528 282.587,189.079 C282.587,187.896 281.771,187.896 281.323,187.896 L279.938,187.896 L279.938,190.3 L279.938,190.3 Z" id="Combined-Shape" fill="#8E9BA0"></path>
        <mask id="mask-2" fill="white">
            <use xlink:href="#path-1"></use>
        </mask>
        <use id="Combined-Shape" fill="#8E9BA0" xlink:href="#path-1"></use>
        <mask id="mask-4" fill="white">
            <use xlink:href="#path-3"></use>
        </mask>
        <use id="Combined-Shape-Copy" fill="#8E9BA0" xlink:href="#path-3"></use>
        <mask id="mask-6" fill="white">
            <use xlink:href="#path-5"></use>
        </mask>
        <use id="Combined-Shape" fill="#8E9BA0" xlink:href="#path-5"></use>
        <mask id="mask-8" fill="white">
            <use xlink:href="#path-7"></use>
        </mask>
        <use id="SVGID_20_-Copy" fill="#555D60" xlink:href="#path-7"></use>
        <mask id="mask-10" fill="white">
            <use xlink:href="#path-9"></use>
        </mask>
        <use id="Shape" fill="#8E9BA0" xlink:href="#path-9"></use>
    </g>
</svg>
